X:3020
T:Campbells are Coming, The
R:Jig
C:Trad.
O:Scotland
Z:Paul Hardy's Session Tunebook 2015 (see www.paulhardy.net). Creative Commons cc by-nc-sa licenced.
M:6/8
L:1/8
Q:3/8=110
K:G
A|"G"Bde "D"dBG|"G"B2B "D7"B2A|"G"Bde "Em"dBG|"Am"A2A "D7"A2A|
|"G"Bde "D"dBG|"G"B>cB "G"g2a|"G"bag "C"ege|"G"dBB "D7"B2:|
|:d|"G"g2g "D"gab|"G"d>ed "D7"dBd|"G" g2g "Em"gab|"C"e>fe "D7"e2d|
|"G"def "C"gfe|"D7"def "Em"g2a|"G"bag "C"ege|"G"dBB "D7"B2:|

